svg/财经.svg

<svg width="36" height="36" viewBox="0 0 36 36" fill="none" xmlns="http://www.w3.org/2000/svg"><rect x="-46.5" y="-9.5" width="129" height="87" rx="11.5" stroke="#FF8D28"/><rect width="36" height="36" rx="12" fill="#D1D5DA"/><path d="M22.8788 22.7987C22.6689 22.7812 22.4591 22.7113 22.2843 22.6064L18.657 19.9523C17.8258 19.3441 16.6991 19.334 15.8572 19.9274L8.29775 25.2553C7.9788 25.4801 7.78906 25.8459 7.78906 26.2362V32.8352C7.78906 34.5837 9.20536 36 10.9539 36H34.1217C35.8703 36 37.2865 34.5837 37.2865 32.8352V15.8844C37.2865 14.9248 36.2161 14.3534 35.4188 14.8873L23.8929 22.6064C23.5957 22.7812 23.2285 22.8686 22.8788 22.7987Z" fill="black"/><path d="M9.86334 21.4225L17.0539 16.4978L22.2108 20.3049C22.4045 20.4154 22.6224 20.4891 22.8403 20.5014C23.2035 20.5505 23.5787 20.4891 23.8814 20.3049L36.6163 11.6715C37.4394 11.3031 37.8026 10.3329 37.4394 9.51005C37.1852 8.93286 36.6041 8.55215 35.9747 8.52759H27.8883C26.9925 8.52759 26.2782 9.25216 26.2782 10.1609C26.2782 11.0697 26.9925 11.7943 27.8883 11.7943H30.6241L23.0945 16.9277L17.9376 13.1206C17.635 12.9364 17.2597 12.8627 16.8966 12.9241C16.6666 12.9364 16.4487 13.0101 16.255 13.1206L8.25333 18.5856C7.50279 19.0523 7.27279 20.0716 7.73279 20.8575C8.18069 21.5698 9.11281 21.8154 9.86334 21.4225Z" fill="white"/><defs><clipPath id="clip0_1970_14250"><rect width="36" height="36" rx="12" fill="white"/></clipPath></defs></svg>

<svg fill="none" viewBox="0 0 36 36"><rect width="129" height="87" x="-46.5" y="-9.5" stroke="#FF8D28" rx="11.5"/><rect width="36" height="36" fill="#D1D5DA" rx="12"/><path fill="black" d="M22.879 22.799a1.4 1.4 0 0 1-.595-.193l-3.627-2.654a2.4 2.4 0 0 0-2.8-.025l-7.56 5.328a1.2 1.2 0 0 0-.508.981v6.6A3.164 3.164 0 0 0 10.954 36h23.168a3.164 3.164 0 0 0 3.164-3.165v-16.95a1.2 1.2 0 0 0-1.867-.998l-11.526 7.72a1.47 1.47 0 0 1-1.014.192"/><path fill="white" d="m9.863 21.423 7.19-4.925 5.158 3.807c.194.11.411.184.63.196a1.6 1.6 0 0 0 1.04-.196l12.735-8.633c.823-.369 1.187-1.34.823-2.162a1.68 1.68 0 0 0-1.464-.982h-8.087c-.896 0-1.61.724-1.61 1.633s.715 1.633 1.61 1.633h2.736l-7.53 5.134-5.156-3.807a1.53 1.53 0 0 0-1.041-.197c-.23.012-.448.086-.642.197l-8.002 5.465c-.75.466-.98 1.486-.52 2.272.448.712 1.38.957 2.13.564"/></svg>
